images/3234401.svg

<?xml version="1.0" encoding="UTF-8"?>
<svg xmlns="http://www.w3.org/2000/svg" xmlns:xlink="http://www.w3.org/1999/xlink" width="300pt" height="300pt" viewBox="0 0 300 300" version="1.1">
<defs>
<g>
<symbol overflow="visible" id="glyph0-0">
<path style="stroke:none;" d="M 0.59375 2.125 L 0.59375 -8.46875 L 6.59375 -8.46875 L 6.59375 2.125 Z M 1.265625 1.453125 L 5.9375 1.453125 L 5.9375 -7.78125 L 1.265625 -7.78125 Z M 1.265625 1.453125 "/>
</symbol>
<symbol overflow="visible" id="glyph0-1">
<path style="stroke:none;" d="M 1.171875 -8.75 L 2.765625 -8.75 L 6.65625 -1.4375 L 6.65625 -8.75 L 7.796875 -8.75 L 7.796875 0 L 6.203125 0 L 2.328125 -7.3125 L 2.328125 0 L 1.171875 0 Z M 1.171875 -8.75 "/>
</symbol>
<symbol overflow="visible" id="glyph0-2">
<path style="stroke:none;" d="M 4.734375 -7.953125 C 3.867188 -7.953125 3.179688 -7.628906 2.671875 -6.984375 C 2.171875 -6.347656 1.921875 -5.472656 1.921875 -4.359375 C 1.921875 -3.265625 2.171875 -2.394531 2.671875 -1.75 C 3.179688 -1.113281 3.867188 -0.796875 4.734375 -0.796875 C 5.585938 -0.796875 6.265625 -1.113281 6.765625 -1.75 C 7.273438 -2.394531 7.53125 -3.265625 7.53125 -4.359375 C 7.53125 -5.472656 7.273438 -6.347656 6.765625 -6.984375 C 6.265625 -7.628906 5.585938 -7.953125 4.734375 -7.953125 Z M 4.734375 -8.90625 C 5.953125 -8.90625 6.925781 -8.492188 7.65625 -7.671875 C 8.394531 -6.847656 8.765625 -5.742188 8.765625 -4.359375 C 8.765625 -2.984375 8.394531 -1.882812 7.65625 -1.0625 C 6.925781 -0.238281 5.953125 0.171875 4.734375 0.171875 C 3.503906 0.171875 2.519531 -0.238281 1.78125 -1.0625 C 1.039062 -1.882812 0.671875 -2.984375 0.671875 -4.359375 C 0.671875 -5.742188 1.039062 -6.847656 1.78125 -7.671875 C 2.519531 -8.492188 3.503906 -8.90625 4.734375 -8.90625 Z M 4.734375 -8.90625 "/>
</symbol>
<symbol overflow="visible" id="glyph0-3">
<path style="stroke:none;" d="M 1.171875 -8.75 L 6.203125 -8.75 L 6.203125 -7.75 L 2.359375 -7.75 L 2.359375 -5.171875 L 5.828125 -5.171875 L 5.828125 -4.171875 L 2.359375 -4.171875 L 2.359375 0 L 1.171875 0 Z M 1.171875 -8.75 "/>
</symbol>
</g>
</defs>
<g id="surface44001">
<rect x="0" y="0" width="300" height="300" style="fill:rgb(100%,100%,100%);fill-opacity:1;stroke:none;"/>
<path style="fill:none;stroke-width:1.2;stroke-linecap:butt;stroke-linejoin:miter;stroke:rgb(0%,0%,0%);stroke-opacity:1;stroke-miterlimit:10;" d="M 230.210938 220.8125 L 255.382812 202.449219 "/>
<path style="fill:none;stroke-width:1.2;stroke-linecap:butt;stroke-linejoin:miter;stroke:rgb(0%,0%,0%);stroke-opacity:1;stroke-miterlimit:10;" d="M 226.890625 189.832031 L 230.210938 220.8125 "/>
<path style="fill:none;stroke-width:1.2;stroke-linecap:butt;stroke-linejoin:miter;stroke:rgb(0%,0%,0%);stroke-opacity:1;stroke-miterlimit:10;" d="M 255.382812 202.449219 L 226.890625 189.832031 "/>
<path style="fill:none;stroke-width:1.2;stroke-linecap:butt;stroke-linejoin:miter;stroke:rgb(0%,0%,0%);stroke-opacity:1;stroke-miterlimit:10;" d="M 226.890625 189.832031 L 217.710938 177.242188 "/>
<path style="fill:none;stroke-width:1.2;stroke-linecap:butt;stroke-linejoin:miter;stroke:rgb(0%,0%,100%);stroke-opacity:1;stroke-miterlimit:10;" d="M 217.710938 177.242188 L 208.527344 164.65625 "/>
<path style="fill:none;stroke-width:1.2;stroke-linecap:butt;stroke-linejoin:miter;stroke:rgb(0%,0%,100%);stroke-opacity:1;stroke-miterlimit:10;" d="M 208.527344 164.65625 L 214.839844 150.410156 "/>
<path style="fill:none;stroke-width:1.2;stroke-linecap:butt;stroke-linejoin:miter;stroke:rgb(0%,0%,0%);stroke-opacity:1;stroke-miterlimit:10;" d="M 214.839844 150.410156 L 221.148438 136.167969 "/>
<path style="fill:none;stroke-width:1.2;stroke-linecap:butt;stroke-linejoin:miter;stroke:rgb(0%,0%,0%);stroke-opacity:1;stroke-miterlimit:10;" d="M 177.546875 167.972656 L 193.039062 166.316406 "/>
<path style="fill:none;stroke-width:1.2;stroke-linecap:butt;stroke-linejoin:miter;stroke:rgb(0%,0%,100%);stroke-opacity:1;stroke-miterlimit:10;" d="M 193.039062 166.316406 L 208.527344 164.65625 "/>
<path style=" stroke:none;fill-rule:nonzero;fill:rgb(100%,100%,100%);fill-opacity:1;" d="M 204.527344 157.65625 L 213.527344 157.65625 L 213.527344 171.65625 L 204.527344 171.65625 Z M 204.527344 157.65625 "/>
<g style="fill:rgb(0%,0%,100%);fill-opacity:1;">
  <use xlink:href="#glyph0-1" x="204.527344" y="168.794922"/>
</g>
<path style="fill:none;stroke-width:1.2;stroke-linecap:butt;stroke-linejoin:miter;stroke:rgb(0%,0%,0%);stroke-opacity:1;stroke-miterlimit:10;" d="M 221.148438 136.167969 L 236.640625 134.507812 "/>
<path style="fill:none;stroke-width:1.2;stroke-linecap:butt;stroke-linejoin:miter;stroke:rgb(0%,0%,100%);stroke-opacity:1;stroke-miterlimit:10;" d="M 236.640625 134.507812 L 252.128906 132.851562 "/>
<path style="fill:none;stroke-width:1.2;stroke-linecap:butt;stroke-linejoin:miter;stroke:rgb(0%,0%,0%);stroke-opacity:1;stroke-miterlimit:10;" d="M 223.464844 128.546875 L 235.859375 127.21875 "/>
<path style="fill:none;stroke-width:1.2;stroke-linecap:butt;stroke-linejoin:miter;stroke:rgb(0%,0%,100%);stroke-opacity:1;stroke-miterlimit:10;" d="M 235.859375 127.21875 L 248.253906 125.890625 "/>
<path style="fill:none;stroke-width:1.2;stroke-linecap:butt;stroke-linejoin:miter;stroke:rgb(0%,0%,0%);stroke-opacity:1;stroke-miterlimit:10;" d="M 202.785156 110.992188 L 221.148438 136.167969 "/>
<path style="fill:none;stroke-width:1.2;stroke-linecap:butt;stroke-linejoin:miter;stroke:rgb(0%,0%,100%);stroke-opacity:1;stroke-miterlimit:10;" d="M 252.128906 132.851562 L 258.441406 118.605469 "/>
<path style="fill:none;stroke-width:1.2;stroke-linecap:butt;stroke-linejoin:miter;stroke:rgb(0%,0%,0%);stroke-opacity:1;stroke-miterlimit:10;" d="M 258.441406 118.605469 L 264.75 104.359375 "/>
<path style=" stroke:none;fill-rule:nonzero;fill:rgb(100%,100%,100%);fill-opacity:1;" d="M 248.128906 125.851562 L 257.128906 125.851562 L 257.128906 139.851562 L 248.128906 139.851562 Z M 248.128906 125.851562 "/>
<g style="fill:rgb(0%,0%,100%);fill-opacity:1;">
  <use xlink:href="#glyph0-1" x="248.128906" y="136.990234"/>
</g>
<path style="fill:none;stroke-width:1.2;stroke-linecap:butt;stroke-linejoin:miter;stroke:rgb(0%,0%,0%);stroke-opacity:1;stroke-miterlimit:10;" d="M 264.75 104.359375 L 255.566406 91.773438 "/>
<path style="fill:none;stroke-width:1.2;stroke-linecap:butt;stroke-linejoin:miter;stroke:rgb(0%,0%,100%);stroke-opacity:1;stroke-miterlimit:10;" d="M 255.566406 91.773438 L 246.386719 79.1875 "/>
<path style="fill:none;stroke-width:1.2;stroke-linecap:butt;stroke-linejoin:miter;stroke:rgb(0%,0%,0%);stroke-opacity:1;stroke-miterlimit:10;" d="M 256.992188 106.164062 L 249.644531 96.09375 "/>
<path style="fill:none;stroke-width:1.2;stroke-linecap:butt;stroke-linejoin:miter;stroke:rgb(0%,0%,100%);stroke-opacity:1;stroke-miterlimit:10;" d="M 249.644531 96.09375 L 242.300781 86.023438 "/>
<path style="fill:none;stroke-width:1.2;stroke-linecap:butt;stroke-linejoin:miter;stroke:rgb(0%,0%,100%);stroke-opacity:1;stroke-miterlimit:10;" d="M 246.386719 79.1875 L 230.894531 80.84375 "/>
<path style="fill:none;stroke-width:1.2;stroke-linecap:butt;stroke-linejoin:miter;stroke:rgb(0%,0%,0%);stroke-opacity:1;stroke-miterlimit:10;" d="M 230.894531 80.84375 L 215.402344 82.503906 "/>
<path style=" stroke:none;fill-rule:nonzero;fill:rgb(100%,100%,100%);fill-opacity:1;" d="M 242.386719 72.1875 L 251.386719 72.1875 L 251.386719 86.1875 L 242.386719 86.1875 Z M 242.386719 72.1875 "/>
<g style="fill:rgb(0%,0%,100%);fill-opacity:1;">
  <use xlink:href="#glyph0-1" x="242.386719" y="83.326172"/>
</g>
<path style="fill:none;stroke-width:1.2;stroke-linecap:butt;stroke-linejoin:miter;stroke:rgb(0%,0%,0%);stroke-opacity:1;stroke-miterlimit:10;" d="M 215.402344 82.503906 L 202.785156 110.992188 "/>
<path style="fill:none;stroke-width:1.2;stroke-linecap:butt;stroke-linejoin:miter;stroke:rgb(0%,0%,0%);stroke-opacity:1;stroke-miterlimit:10;" d="M 220.84375 88.320312 L 210.75 111.113281 "/>
<path style="fill:none;stroke-width:1.2;stroke-linecap:butt;stroke-linejoin:miter;stroke:rgb(0%,0%,0%);stroke-opacity:1;stroke-miterlimit:10;" d="M 202.785156 110.992188 L 187.292969 112.652344 "/>
<path style="fill:none;stroke-width:1.2;stroke-linecap:butt;stroke-linejoin:miter;stroke:rgb(0%,0%,100%);stroke-opacity:1;stroke-miterlimit:10;" d="M 187.292969 112.652344 L 171.800781 114.308594 "/>
<path style="fill:none;stroke-width:1.2;stroke-linecap:butt;stroke-linejoin:miter;stroke:rgb(0%,0%,100%);stroke-opacity:1;stroke-miterlimit:10;" d="M 171.800781 114.308594 L 165.492188 128.554688 "/>
<path style="fill:none;stroke-width:1.2;stroke-linecap:butt;stroke-linejoin:miter;stroke:rgb(0%,0%,0%);stroke-opacity:1;stroke-miterlimit:10;" d="M 165.492188 128.554688 L 159.183594 142.800781 "/>
<path style="fill:none;stroke-width:1.2;stroke-linecap:butt;stroke-linejoin:miter;stroke:rgb(0%,0%,100%);stroke-opacity:1;stroke-miterlimit:10;" d="M 177.242188 120.128906 L 172.195312 131.523438 "/>
<path style="fill:none;stroke-width:1.2;stroke-linecap:butt;stroke-linejoin:miter;stroke:rgb(0%,0%,0%);stroke-opacity:1;stroke-miterlimit:10;" d="M 172.195312 131.523438 L 167.148438 142.921875 "/>
<path style=" stroke:none;fill-rule:nonzero;fill:rgb(100%,100%,100%);fill-opacity:1;" d="M 167.800781 107.308594 L 176.800781 107.308594 L 176.800781 121.308594 L 167.800781 121.308594 Z M 167.800781 107.308594 "/>
<g style="fill:rgb(0%,0%,100%);fill-opacity:1;">
  <use xlink:href="#glyph0-1" x="167.800781" y="118.447266"/>
</g>
<path style="fill:none;stroke-width:1.2;stroke-linecap:butt;stroke-linejoin:miter;stroke:rgb(0%,0%,0%);stroke-opacity:1;stroke-miterlimit:10;" d="M 159.183594 142.800781 L 177.546875 167.972656 "/>
<path style="fill:none;stroke-width:1.2;stroke-linecap:butt;stroke-linejoin:miter;stroke:rgb(0%,0%,0%);stroke-opacity:1;stroke-miterlimit:10;" d="M 159.183594 142.800781 L 128.199219 146.117188 "/>
<path style="fill:none;stroke-width:1.2;stroke-linecap:butt;stroke-linejoin:miter;stroke:rgb(0%,0%,0%);stroke-opacity:1;stroke-miterlimit:10;" d="M 174.195312 166.488281 L 167.882812 180.734375 "/>
<path style="fill:none;stroke-width:1.2;stroke-linecap:butt;stroke-linejoin:miter;stroke:rgb(100%,0%,0%);stroke-opacity:1;stroke-miterlimit:10;" d="M 167.882812 180.734375 L 161.574219 194.980469 "/>
<path style="fill:none;stroke-width:1.2;stroke-linecap:butt;stroke-linejoin:miter;stroke:rgb(0%,0%,0%);stroke-opacity:1;stroke-miterlimit:10;" d="M 180.898438 169.457031 L 174.585938 183.703125 "/>
<path style="fill:none;stroke-width:1.2;stroke-linecap:butt;stroke-linejoin:miter;stroke:rgb(100%,0%,0%);stroke-opacity:1;stroke-miterlimit:10;" d="M 174.585938 183.703125 L 168.277344 197.949219 "/>
<path style=" stroke:none;fill-rule:nonzero;fill:rgb(100%,100%,100%);fill-opacity:1;" d="M 154.925781 189.464844 L 164.925781 189.464844 L 164.925781 203.464844 L 154.925781 203.464844 Z M 154.925781 189.464844 "/>
<g style="fill:rgb(100%,0%,0%);fill-opacity:1;">
  <use xlink:href="#glyph0-2" x="154.925781" y="200.603516"/>
</g>
<path style="fill:none;stroke-width:1.2;stroke-linecap:butt;stroke-linejoin:miter;stroke:rgb(0%,0%,0%);stroke-opacity:1;stroke-miterlimit:10;" d="M 128.199219 146.117188 L 109.835938 120.941406 "/>
<path style="fill:none;stroke-width:1.2;stroke-linecap:butt;stroke-linejoin:miter;stroke:rgb(0%,0%,0%);stroke-opacity:1;stroke-miterlimit:10;" d="M 120.4375 147.921875 L 105.75 127.78125 "/>
<path style="fill:none;stroke-width:1.2;stroke-linecap:butt;stroke-linejoin:miter;stroke:rgb(0%,0%,0%);stroke-opacity:1;stroke-miterlimit:10;" d="M 115.578125 174.605469 L 128.199219 146.117188 "/>
<path style="fill:none;stroke-width:1.2;stroke-linecap:butt;stroke-linejoin:miter;stroke:rgb(0%,0%,0%);stroke-opacity:1;stroke-miterlimit:10;" d="M 109.835938 120.941406 L 78.851562 124.257812 "/>
<path style="fill:none;stroke-width:1.2;stroke-linecap:butt;stroke-linejoin:miter;stroke:rgb(0%,0%,0%);stroke-opacity:1;stroke-miterlimit:10;" d="M 78.851562 124.257812 L 66.234375 152.75 "/>
<path style="fill:none;stroke-width:1.2;stroke-linecap:butt;stroke-linejoin:miter;stroke:rgb(0%,0%,0%);stroke-opacity:1;stroke-miterlimit:10;" d="M 84.292969 130.078125 L 74.199219 152.871094 "/>
<path style="fill:none;stroke-width:1.2;stroke-linecap:butt;stroke-linejoin:miter;stroke:rgb(0%,0%,0%);stroke-opacity:1;stroke-miterlimit:10;" d="M 78.851562 124.257812 L 69.671875 111.671875 "/>
<path style="fill:none;stroke-width:1.2;stroke-linecap:butt;stroke-linejoin:miter;stroke:rgb(20%,80%,80%);stroke-opacity:1;stroke-miterlimit:10;" d="M 69.671875 111.671875 L 60.488281 99.085938 "/>
<path style="fill:none;stroke-width:1.2;stroke-linecap:butt;stroke-linejoin:miter;stroke:rgb(0%,0%,0%);stroke-opacity:1;stroke-miterlimit:10;" d="M 66.234375 152.75 L 84.597656 177.921875 "/>
<path style="fill:none;stroke-width:1.2;stroke-linecap:butt;stroke-linejoin:miter;stroke:rgb(0%,0%,0%);stroke-opacity:1;stroke-miterlimit:10;" d="M 66.234375 152.75 L 50.742188 154.410156 "/>
<path style="fill:none;stroke-width:1.2;stroke-linecap:butt;stroke-linejoin:miter;stroke:rgb(20%,80%,80%);stroke-opacity:1;stroke-miterlimit:10;" d="M 50.742188 154.410156 L 35.25 156.066406 "/>
<path style="fill:none;stroke-width:1.2;stroke-linecap:butt;stroke-linejoin:miter;stroke:rgb(0%,0%,0%);stroke-opacity:1;stroke-miterlimit:10;" d="M 84.597656 177.921875 L 115.578125 174.605469 "/>
<path style="fill:none;stroke-width:1.2;stroke-linecap:butt;stroke-linejoin:miter;stroke:rgb(0%,0%,0%);stroke-opacity:1;stroke-miterlimit:10;" d="M 86.914062 170.300781 L 111.699219 167.648438 "/>
<path style=" stroke:none;fill-rule:nonzero;fill:rgb(100%,100%,100%);fill-opacity:1;" d="M 28.25 149.066406 L 35.25 149.066406 L 35.25 163.066406 L 28.25 163.066406 Z M 28.25 149.066406 "/>
<g style="fill:rgb(20%,80%,80%);fill-opacity:1;">
  <use xlink:href="#glyph0-3" x="28.25" y="160.205078"/>
</g>
<path style=" stroke:none;fill-rule:nonzero;fill:rgb(100%,100%,100%);fill-opacity:1;" d="M 53.488281 92.085938 L 60.488281 92.085938 L 60.488281 106.085938 L 53.488281 106.085938 Z M 53.488281 92.085938 "/>
<g style="fill:rgb(20%,80%,80%);fill-opacity:1;">
  <use xlink:href="#glyph0-3" x="53.488281" y="103.224609"/>
</g>
</g>
</svg>

<svg xmlns="http://www.w3.org/2000/svg" xmlns:xlink="http://www.w3.org/1999/xlink" width="300pt" height="300pt" viewBox="0 0 300 300"><defs><symbol overflow="visible"><path d="M.594 2.125V-8.47h6V2.126zm.672-.672h4.671V-7.78h-4.67zm0 0"/></symbol><symbol overflow="visible" id="a"><path d="M1.172-8.75h1.594l3.89 7.313V-8.75h1.14V0H6.204L2.328-7.313V0H1.172zm0 0"/></symbol><symbol overflow="visible" id="b"><path d="M4.734-7.953c-.867 0-1.554.324-2.062.97-.5.635-.75 1.51-.75 2.624 0 1.094.25 1.965.75 2.61.508.637 1.195.953 2.062.953.852 0 1.532-.316 2.032-.953.507-.645.765-1.516.765-2.61 0-1.113-.257-1.988-.764-2.624-.5-.645-1.18-.97-2.032-.97zm0-.953c1.22 0 2.192.414 2.922 1.234.74.824 1.11 1.93 1.11 3.313 0 1.376-.37 2.477-1.11 3.298C6.926-.24 5.953.17 4.734.17c-1.23 0-2.214-.41-2.953-1.234C1.04-1.882.673-2.984.673-4.36c0-1.382.367-2.488 1.11-3.312.738-.82 1.722-1.234 2.952-1.234zm0 0"/></symbol><symbol overflow="visible" id="c"><path d="M1.172-8.75h5.03v1H2.36v2.578h3.468v1h-3.47V0H1.173zm0 0"/></symbol></defs><g><path fill="#fff" d="M0 0h300v300H0z"/><path d="M230.21 220.813l25.173-18.364M226.89 189.832l3.32 30.98M255.383 202.45L226.89 189.83M226.89 189.832l-9.18-12.59" stroke-width="1.2" stroke="#000" stroke-miterlimit="10" fill="none"/><path d="M217.71 177.242l-9.183-12.586M208.527 164.656l6.313-14.246" stroke-width="1.2" stroke="#00f" stroke-miterlimit="10" fill="none"/><path d="M214.84 150.41l6.308-14.242M177.547 167.973l15.492-1.657" stroke-width="1.2" stroke="#000" stroke-miterlimit="10" fill="none"/><path d="M193.04 166.316l15.487-1.66" stroke-width="1.2" stroke="#00f" stroke-miterlimit="10" fill="none"/><path d="M204.527 157.656h9v14h-9zm0 0" fill="#fff"/><use xlink:href="#a" x="204.527" y="168.795" fill="#00f"/><path d="M221.148 136.168l15.493-1.66" stroke-width="1.2" stroke="#000" stroke-miterlimit="10" fill="none"/><path d="M236.64 134.508l15.49-1.656" stroke-width="1.2" stroke="#00f" stroke-miterlimit="10" fill="none"/><path d="M223.465 128.547l12.394-1.328" stroke-width="1.2" stroke="#000" stroke-miterlimit="10" fill="none"/><path d="M235.86 127.22l12.394-1.33" stroke-width="1.2" stroke="#00f" stroke-miterlimit="10" fill="none"/><path d="M202.785 110.992l18.363 25.176" stroke-width="1.2" stroke="#000" stroke-miterlimit="10" fill="none"/><path d="M252.13 132.852l6.31-14.247" stroke-width="1.2" stroke="#00f" stroke-miterlimit="10" fill="none"/><path d="M258.44 118.605l6.31-14.246" stroke-width="1.2" stroke="#000" stroke-miterlimit="10" fill="none"/><path d="M248.13 125.852h9v14h-9zm0 0" fill="#fff"/><use xlink:href="#a" x="248.129" y="136.99" fill="#00f"/><path d="M264.75 104.36l-9.184-12.587" stroke-width="1.2" stroke="#000" stroke-miterlimit="10" fill="none"/><path d="M255.566 91.773l-9.18-12.585" stroke-width="1.2" stroke="#00f" stroke-miterlimit="10" fill="none"/><path d="M256.992 106.164l-7.347-10.07" stroke-width="1.2" stroke="#000" stroke-miterlimit="10" fill="none"/><path d="M249.645 96.094l-7.344-10.07M246.387 79.188l-15.492 1.656" stroke-width="1.2" stroke="#00f" stroke-miterlimit="10" fill="none"/><path d="M230.895 80.844l-15.493 1.66" stroke-width="1.2" stroke="#000" stroke-miterlimit="10" fill="none"/><path d="M242.387 72.188h9v14h-9zm0 0" fill="#fff"/><use xlink:href="#a" x="242.387" y="83.326" fill="#00f"/><path d="M215.402 82.504l-12.617 28.488M220.844 88.32l-10.094 22.793M202.785 110.992l-15.492 1.66" stroke-width="1.2" stroke="#000" stroke-miterlimit="10" fill="none"/><path d="M187.293 112.652L171.8 114.31M171.8 114.31l-6.308 14.245" stroke-width="1.2" stroke="#00f" stroke-miterlimit="10" fill="none"/><path d="M165.492 128.555l-6.308 14.246" stroke-width="1.2" stroke="#000" stroke-miterlimit="10" fill="none"/><path d="M177.242 120.13l-5.047 11.393" stroke-width="1.2" stroke="#00f" stroke-miterlimit="10" fill="none"/><path d="M172.195 131.523l-5.047 11.4" stroke-width="1.2" stroke="#000" stroke-miterlimit="10" fill="none"/><path d="M167.8 107.31h9v14h-9zm0 0" fill="#fff"/><use xlink:href="#a" x="167.801" y="118.447" fill="#00f"/><path d="M159.184 142.8l18.363 25.173M159.184 142.8l-30.985 3.317M174.195 166.488l-6.312 14.246" stroke-width="1.2" stroke="#000" stroke-miterlimit="10" fill="none"/><path d="M167.883 180.734l-6.31 14.246" stroke-width="1.2" stroke="#f00" stroke-miterlimit="10" fill="none"/><path d="M180.898 169.457l-6.312 14.246" stroke-width="1.2" stroke="#000" stroke-miterlimit="10" fill="none"/><path d="M174.586 183.703l-6.31 14.246" stroke-width="1.2" stroke="#f00" stroke-miterlimit="10" fill="none"/><path d="M154.926 189.465h10v14h-10zm0 0" fill="#fff"/><use xlink:href="#b" x="154.926" y="200.604" fill="#f00"/><path d="M128.2 146.117l-18.364-25.176M120.438 147.922l-14.688-20.14M115.578 174.605l12.62-28.488M109.836 120.94l-30.984 3.318M78.852 124.258L66.234 152.75M84.293 130.078L74.2 152.87M78.852 124.258l-9.18-12.586" stroke-width="1.2" stroke="#000" stroke-miterlimit="10" fill="none"/><path d="M69.672 111.672l-9.184-12.586" stroke-width="1.2" stroke="#3cc" stroke-miterlimit="10" fill="none"/><path d="M66.234 152.75l18.364 25.172M66.234 152.75l-15.492 1.66" stroke-width="1.2" stroke="#000" stroke-miterlimit="10" fill="none"/><path d="M50.742 154.41l-15.492 1.656" stroke-width="1.2" stroke="#3cc" stroke-miterlimit="10" fill="none"/><path d="M84.598 177.922l30.98-3.317M86.914 170.3l24.785-2.652" stroke-width="1.2" stroke="#000" stroke-miterlimit="10" fill="none"/><path d="M28.25 149.066h7v14h-7zm0 0" fill="#fff"/><use xlink:href="#c" x="28.25" y="160.205" fill="#3cc"/><path d="M53.488 92.086h7v14h-7zm0 0" fill="#fff"/><use xlink:href="#c" x="53.488" y="103.225" fill="#3cc"/></g></svg>
